X:1     %Music
T:Our Ship She Lies in Harbour
B:Broadwood, L, 1908, English Traditional Songs and Carols, London, Boosey
N:Reprinted by EP Publishing Limited, Rowman & Littlefield, Totowa, New Jersey, 1974

Z:Lucy Broadwood
F:http://www.folkinfo.org/songs
M:4/4     %Meter
L:1/8     %
K:G
G2 |A3 G F2 G2 |(A2 B2) G z     
w:Our ship she lies in har--bour,
G2 |c2 c2 (Bd) e2 | d4 z2 
w:Just rea-dy to_ set sail, 
d2 |e2 c2 (cd) e2 | d2 B2 G2
w:May hea-ven be_ your guard-ian, love,
G2 |A2 d2 A2 B2 | HG4  |]
w:Till I re-turn from sea.